icons/svg/microsoft.svg

<svg xmlns="http://www.w3.org/2000/svg" version="1.1" baseProfile="full" width="24" height="24" viewBox="0 0 24.00 24.00" xml:space="preserve"><path fill="#000" fill-opacity="1" stroke-linejoin="round" d="M2 3h9v9H2V3zm9 19H2v-9h9v9zM21 3v9h-9V3h9zm0 19h-9v-9h9v9z"/></svg>

﻿<?xml version="1.0" encoding="utf-8"?>
<!DOCTYPE svg PUBLIC "-//W3C//DTD SVG 1.1//EN" "http://www.w3.org/Graphics/SVG/1.1/DTD/svg11.dtd">
<svg xmlns="http://www.w3.org/2000/svg" xmlns:xlink="http://www.w3.org/1999/xlink" version="1.1" baseProfile="full" width="24" height="24" viewBox="0 0 24.00 24.00" enable-background="new 0 0 24.00 24.00" xml:space="preserve">
	<path fill="#000000" fill-opacity="1" stroke-linejoin="round" d="M 2,3L 11,3L 11,12L 2,12L 2,3 Z M 11,22L 2,22L 2,13L 11,13L 11,22 Z M 21,3L 21,12L 12,12L 12,3L 21,3 Z M 21,22L 12,22L 12,13L 21,13L 21,22 Z "/>
</svg>
